React/src/assets/images/backend/aws-icon.svg

<svg width="130" height="130" viewBox="0 0 130 130" fill="none" xmlns="http://www.w3.org/2000/svg">
<g clip-path="url(#clip0)">
<path fill-rule="evenodd" clip-rule="evenodd" d="M63.4969 127.514L34.5109 117.114V74.6402L63.4969 84.5121V127.514ZM68.7781 127.514L97.7641 117.114V74.6402L68.7781 84.5202V127.514ZM37.4969 71.4512L66.7469 63.1921L93.9494 71.9671L66.7469 81.2012L37.4969 71.4512ZM28.9981 68.2012L0 57.7687V15.2343L28.9859 25.1062L28.9981 68.2012ZM34.3078 68.2012L63.2937 57.8012V15.2343L34.2997 25.1549L34.3078 68.2012ZM3.02656 12.1387L32.2766 3.83899L59.4791 12.614L32.2766 21.8481L3.02656 12.1387ZM96.6753 68.2012L67.6894 57.8012V15.2343L96.6753 25.1062V68.2012ZM101.957 68.2012L130.942 57.8012V15.2343L101.957 25.1062V68.2012ZM70.6753 12.1387L99.9253 3.87961L127.128 12.6546L99.9253 21.8887L70.6753 12.1387Z" fill="#FF9900"/>
</g>
<defs>
<clipPath id="clip0">
<rect width="130" height="130" fill="white"/>
</clipPath>
</defs>
</svg>

<svg width="130" height="130" fill="none" xmlns="http://www.w3.org/2000/svg"><g clip-path="url(#clip0)"><path fill-rule="evenodd" clip-rule="evenodd" d="M63.497 127.514l-28.986-10.4V74.64l28.986 9.872v43.002zm5.281 0l28.986-10.4V74.64l-28.986 9.88v42.994zM37.497 71.451l29.25-8.259 27.202 8.775-27.202 9.234-29.25-9.75zm-8.499-3.25L0 57.77V15.234l28.986 9.872.012 43.095zm5.31 0l28.986-10.4V15.234L34.3 25.154l.008 43.047zM3.027 12.14l29.25-8.3 27.202 8.775-27.202 9.234-29.25-9.71zM96.675 68.2l-28.986-10.4V15.234l28.986 9.872v43.095zm5.282 0l28.985-10.4V15.234l-28.985 9.872v43.095zM70.675 12.14l29.25-8.26 27.203 8.776-27.203 9.234-29.25-9.75z" fill="#F90"/></g><defs><clipPath id="clip0"><path fill="#fff" d="M0 0h130v130H0z"/></clipPath></defs></svg>
